X: 8
T:Maid of the Mill, Bledington 1
M:6/8
L:1/8
A:Bledington
P:A(AB)4
K:F
P:A
|:C|CFF FEF|GFG A2F|DDD CDE|F3 F2:|
P:B
|:A/B/|c2c cBA|BAG B2B|GAB cAF|F3 E2C|
CFF FEF|GFG A2F|DDD CDE|F3 F2:|

